X:1
T:Delft, 87.87.87 D
T:Delft, 87.87.87 D
T:Henry Southwick Perkins, 1873
T:Public Domain Courtesy of the Cyber Hymnal™
C:Henry Southwick Perkins, 1873
Z:Public Domain
Z:Courtesy of the Cyber Hymnal™
%%score ( 1 2 ) ( 3 4 )
L:1/8
Q:1/4=113
M:6/8
K:Eb
V:1 treble 
V:2 treble 
V:3 bass 
V:4 bass 
V:1
 [EG]2 [EG] [EG]2 [FA] | [EG]3 [Ac]3 | [GB]3 [EG]3 | [DF]2 [^C=E] [DF]2 [EG] | [FA]3 [DF]3 | %5
 [EG]3- [EG]2 z | [EG]2 [EG] [EG]2 [FA] | [EG]3 [Ac]3 | [GB]3 [EG]3 | [DF]2 [DF] [DF]2 [DF] | %10
 [EG]3 [E=A]3 | [DB]3- [DB]2 z | [GB]3- [GB]2 [Ac] | [GB]3 [EG]3 | [DA]3- [DA]2 [DB] | %15
 [DA]3 [DF]2 z | [DF]2 [DF] [DF]2 [DF] | [EG]3 [Ac]3 | [GB]3- [GB]2 z | [GB]3- [GB]2 [Ac] | %20
 [GB]3 [EG]3 | [Ec]3- [Ec]2 [Ad] | [ce]3 !fermata![Ac]2 z | [GB]2 [Ac] [GB]2 [FA] | [EG]3 [DF]3 | %25
 E3- E2 z |] %26
V:2
 x6 | x6 | x6 | x6 | x6 | x6 | x6 | x6 | x6 | x6 | x6 | x6 | x6 | x6 | x6 | x6 | x6 | x6 | x6 | %19
 x6 | x6 | x6 | x6 | x6 | x6 | E3- E2 x |] %26
V:3
 [E,,E,]2 z [E,,E,]2 z | [E,,E,]2 z [E,,E,]2 z | [E,,E,]2 z [E,,E,]2 z | %3
 [B,,,B,,]2 z [B,,,B,,]2 z | [B,,,B,,]2 z [B,,,B,,]2 z | [E,,E,]2 z [E,,E,]2 z | %6
 [E,,E,]2 z [E,,E,]2 z | [E,,E,]2 z [E,,E,]2 z | [E,,E,]2 z [E,,E,]2 z | %9
 [B,,,B,,]2 z [B,,,B,,]2 z | [E,,E,]2 z [C,,C,]2 z | [B,,,B,,]3- [B,,,B,,]2 z | %12
 [E,E]3- [E,E]2 [E,E] | [E,E]3 [E,B,]3 | [B,,B,]3- [B,,B,]2 [B,,B,] | [B,,B,]3 [B,,B,]2 z | %16
 [B,,B,]2 [B,,B,] [B,,B,]2 [B,,B,] | [E,B,]3 [E,E]3 | [E,E]3- [E,E]2 z | [E,E]3- [E,E]2 [E,E] | %20
 [E,E]3 [E,B,]3 | A,3- A,2 A, | A,3 !fermata![A,E]2 z | [B,E]2 [B,E] [B,E]2 B, | %24
 [B,,B,]3 [B,,A,]3 | [E,G,]3- [E,G,]2 z |] %26
V:4
 x6 | x6 | x6 | x6 | x6 | x6 | x6 | x6 | x6 | x6 | x6 | x6 | x6 | x6 | x6 | x6 | x6 | x6 | x6 | %19
 x6 | x6 | A,3- A,2 A, | A,3 x3 | x5 B, | x6 | x6 |] %26

